X: 1
T: Mairi's Wedding
C: trad. Scotland
N: R-48 in Roaring Jelly collection
R: march
%S: s:2 b:12(6+6)
Z: 2021 John Chambers <jc:trillian.mit.edu>
M: C|
L: 1/8
K: G
"A"|:\
"G"D3E D2E2 | G2A2 B3B |1 "C"A2G2 E2G2 | "D"B2A2 Bd3 :|2 "C"A2G2 EFG2 | "D"D4 D4 :|
"B"|:\
"G"d4 d3e | d2c2 B3B |1 "C"A2G2 E2G2 | "D"B2A2 Bd3 :|2 "C"A2G2 EFG2 | "D"D4 D4 :|
